X:1
T:Sonata in G minor
T:Sonata in G minor
T:K.4
T:Domenico Scarlatti
C:Domenico Scarlatti
%%score { ( 1 4 ) | ( 2 3 ) }
L:1/8
Q:1/4=100
M:4/4
K:Bb
V:1 treble nm="Harpsichord" snm="Hch."
V:4 treble 
V:2 bass 
V:3 bass 
V:1
"^Allegro" G/ | G/B/A/c/ B/d/c/e/ d3 g | ^fg ac Bc dG | ^FGAC B,CDG | %4
 ^FG A/[I:staff +1]C/B,/A,/ B,/[I:staff -1]D/G- G/A/^F | G x DE FA G/e/d/c/ | defB A/c/=B/d/ cd | %7
 efgc =B/d/^c/=e/ de | fgad ^cd =eG | FGAD ^CD =E/G/F/E/ | F/A/d- d/e/=c- c/d/B/G/x/=e/f | %11
 =e d2- d/^c/ d/B/A/G/ A/B/=c/A/ | B/^c/d/=e/ A/g/f/e/ f/e/d/c/ d/e/f/g/ | %13
 a/^c/d/=e/ A/d/c/=B/ a/c/d/e/ A/d/c/B/ | a/^c/d/=e/ A/d/c/=B/ c2- c/c/d/e/ | %15
 Aa3/2 g/f/e/ f=e/d/ ^cd | =e x _EF GF/E/ FG | %17
 A/^C/D/=E/[I:staff +1] A,/[I:staff -1]D/C/=B,/ A/C/D/E/[I:staff +1] A,/[I:staff -1]D/C/B,/ | %18
 ^C2- C/C/D/=E/[I:staff +1] A,[I:staff -1]A3/2 G/F/E/ |x/A<d =e/^c d2 AG | ^F D2 ^C D>=E ^F>G- | %21
 G/A^F/ =B>[A^c] (c/ [Ad]2) z/ z :: D/ | D/^F/=E/G/ F/A/G/B/ A3 B | cde^F GAB=B | cd e x fedc | %26
 g/=B/c/d/ G/c/B/A/ g/B/c/d/ G/c/B/A/ | g/=B/c/d/ G/c/B/A/ B2- B/B/c/d/ | Gg3/2 f/e/d/ ed/c/ =Bc | %29
 d/ x/ x DE FG- GA | B^c d/c'/b/a/ ba/g/ ^fg | a/^f/g/a/ d/g/f/=e/ a/f/g/a/ d/g/f/e/ | %32
 ^f/f/g/a/ d/g/f/=e/ f2- f/f/g/a/ | dg3/2 c'/b/a/ ba/g/ ^fg | a/A/B/c/ [^FA][G-B] cB/A/ Bc | %35
 d/^F/G/A/ D/G/F/=E/ d/F/G/A/ D/G/F/E/ | d/^F/G/A/ D/G/F/=E/ d/F/G/A/ D/G/F/E/ | %37
 ^F2- F/F/G/A/ Dd3/2 c/B/A/ | B/d<g a^f/ g x dc | B G2 ^F G>A Bc | d>d =e[c^f] (f/ [Bdg]2) z z/ :| %41
V:2
 z/ | z2 z z/ G,/ G,/B,/A,/C/ B,/[I:staff -1]D/C/E/ | %2
 D/^F/=E/G/ F/A/D/F/[I:staff +1] G,/B,/A,/C/ B,/[I:staff -1]D/C/E/ | %3
[I:staff +1] D,/^F,/=E,/G,/ F,/A,/D,/F,/ G,,/B,,/A,,/C,/ B,,/D,/C,/_E,/ | %4
 D,/^F,/=E,/G,/ F,D, G,B,, C,D, | G,,G,3/2 B,/A,/G,/ A,/[I:staff -1]E/D/C/ D[I:staff +1]A, | %6
 B,/[I:staff -1]D/C/E/ D/F/E/G/ FD E/G/[I:staff +1]=B,/[I:staff -1]D/ | %7
 C/E/D/F/ E/G/F/A/ _G=E F/A/^C/E/ | D/F/=E/G/ F/A/G/B/[I:staff +1] A,/^C/=B,/D/ C/E/A,/C/ | %9
 D,/F,/=E,/G,/ F,/A,/G,/B,/ A,,/^C,/=B,,/D,/ C,A,, | D,F,G,A, D,G, ^C,D, | A,4 D4 | %12
[I:staff -1] G=E F^C D[I:staff +1]A, B,2 | %13
 A,,2- A,,/[I:staff -1]F/=E/D/[I:staff +1] A,,2- A,,/[I:staff -1]F/E/D/ | %14
[I:staff +1] A,,2- A,,/[I:staff -1]F/=E/D/ A/E/^C/E/[I:staff +1] A,/[I:staff -1]G/F/E/ | %15
[I:staff +1] A,/[I:staff -1]F/=E/D/[I:staff +1] A,/[I:staff -1]_E/D/^C/[I:staff +1] DG,A,B, | %16
 A,,2- A,,/A,/G,/F,/ =E,A, D,/D/=C/B,/ | A,,2- A,,/F,/=E,/D,/ A,,2- A,,/F,/E,/D,/ | %18
 A,/=E,/^C,/E,/ A,,/G,/F,/E,/ A,,/F,/E,/D,/ A,,/E,/D,/C,/ | D,G,A,A,, D,,4 | %20
[I:staff -1] D/[I:staff +1]=C/B,/A,/ G,/B,/A,/G,/ ^F,/A,/G, A,/[I:staff -1]D/[I:staff +1]=B, | %21
 D,,4 x/ D,,2 z/ z :: z/ | z2 z z/ D,/ D,/^F,/=E,/G,/ F,/A,/G,/B,/ | %24
 A,/C/B,/[I:staff -1]D/ C/E/D/C/[I:staff +1] B,/C/A,/B,/ G,/A,/F,/G,/ | %25
 E,/F,/D,/E,/ C,/D,/B,,/C,/ _A,,/B,,/G,,/A,,/ F,,/A,,/G,,/F,,/ | %26
 G,,2- G,,/[I:staff -1]E/D/C/[I:staff +1] G,,2- G,,/[I:staff -1]E/D/C/ | %27
[I:staff +1] G,,2- G,,/[I:staff -1]E/D/C/ G/D/[I:staff +1]=B,/[I:staff -1]D/[I:staff +1] G,/[I:staff -1]F/E/D/ | %28
[I:staff +1] G,/[I:staff -1]E/D/C/[I:staff +1] G,/[I:staff -1]D/C/[I:staff +1]=B,/ CF,G,_A, | %29
 G,,G,3/2 G,/F,/E,/ D,G, C,/C/_B,/A,/ | G,/[I:staff -1]G/^F/=E/ FD G[I:staff +1]CDE | %31
 D,2- D,/[I:staff -1]B/A/G/[I:staff +1] D,2- D,/[I:staff -1]B/A/G/ | %32
[I:staff +1] D,2- D,/[I:staff -1]B/A/G/ d/A/^F/A/ D/c/B/A/ | D/B/A/G/ D/A/G/^F/ G[I:staff +1]CDE | %34
 D,[I:staff -1]D3/2 D/[I:staff +1]C/B,/ A,D, G,/[I:staff -1]G/=F/E/ | %35
[I:staff +1] D,2- D,/B,/A,/G,/ D,,2- D,,/B,/A,/G,/ | D,,2- D,,/B,/A,/G,/ D,,2- D,,/B,/A,/G,/ | %37
[I:staff -1] D/[I:staff +1]A,/^F,/A,/ D,/C/B,/A,/ D,/B,/A,/G,/ D,/A,/G,/F,/ | G,E,D,D,, G,,4 | %39
 G,,4 G,,4 | G,,4 x/ G,,2 z z/ :| %41
V:3
 x/ | x8 | x8 | x8 | x5[I:staff -1] G/[I:staff +1]B,/ A,>C- | C/[I:staff -1]E/D/C/ x6 | x8 | x8 | %8
 x8 | x8 | x8 | x8 | x8 | x8 | x8 | x8 | x8 | x8 | x8 | x8 |[I:staff +1] D,,4 D,,4 | x8 :: x/ | %23
 x8 | x8 | x8 | x8 | x8 | x8 | x2 =B,C- C/[I:staff -1]D/E/D/ E^F | x8 | x8 | x8 | x8 | x8 | x8 | %36
 x8 | x8 | x8 | x8 | x8 :| %41
V:4
 x/ | x8 | x8 | x8 | x8 | x8 | x8 | x8 | x8 | x8 | x d/F/ =E>G ^F x A>=B | %11
 ^c/=E/F/D/ E/F/G- G^F/E/ F/G/A/F/ | x4 D A2 G | x8 | x8 | x4 f/F<B AG/ | %16
 ^c/^E/F/G/ ^CD G/_E/D/C/ D/ x3/2 | x8 | x8 | F>F =E>G- G/B/A/G/ ^F/D/E/^C/ | x8 | %21
 ^CD- D/G/=E/G/ x/ ^F2 x3/2 :: x/ | x8 | x7 D | EFGg x4 | x8 | x8 | x4 e/G<_A GF/ | =B/D/E/F/ x6 | %30
 G/ x7/2 b/d<e d=c/ | x8 | x8 | z4 b/d<e dc/ | x4 G/G^F/ x2 | x8 | x8 | d x7 | %38
xx/c/ BA g/e/d/c/ B/G/A/^F/ | G/=F/E/D/ C/E/D/C/x/[I:staff +1]B,/C- C/[I:staff -1]D^F/- | %40
 F/A/B/G/- G/c/A/d/ x/ G2 x3/2 :| %41

